X:1
T:" Cyrptonic" - AltRock3.sty demo
L:1/8
K:A
Q:1/4=85
R:ROCK ALTERNATIVO 3
M:4/4
| z4  z2  z A/2=c/2 | "A"e3/2e/2- e3/2=f/2 ed- dd/2e/2 | d=c/2c/2- cA/2c/2- c3 A/2c/2 | "F"d3/2d/2- d3/2=c/2 d/2e/2c- cA/2=G/2 |
| "A"A6- AA/2=c/2 | "A"d/2ee/2- e3/2=f/2 ed- dd/2e/2 | d=c/2c/2- cB c2 "G"Ac | "F"=c/2dd/2- de dc A=G/2A/2 |
| "A"-A6- Ae/2=g/2 | "F"a=g/2a/2- a4- ae/2g/2 | "Em"a=g/2a/2- a4- ae/2g/2 | "A"a=g/2a/2- a4- ae/2g/2 |
| "G"a=g/2a/2- a2- "A"a2- ae/2g/2 | "F"a=g/2a/2- a4- ae/2g/2 | "Em"a/2b/2=g/2a/2- a4- ae/2g/2 | "A"a=g/2a/2- a4 g/2e/2d/2=c/2 |
| "G"A4 "A"-A4 | "A"-A2  z2  z4 | "A" z4  z2  z A/2=c/2 | "A" z8 |
| z8 |
%abc
%%abc-alias none
%%abc-creator ABCexplorer 1.6.1 [23/04/2020]

